!!!!SEGMENT: pl-wn--mus-247--001_zelenski-wladyslaw--dwie-piesni-op-7-czarnobrywka.krn
!!!cenid: 18xx:3657
!!!COM: Żeleński, Władysław
!!!COM-rismid: pe41024455
!!!CDT:
!!!CNT:
!!!GTL: Dwie pieśni op. 7
!!!OTL: Czarnobrywka
!!!PDT:
!!!AGN:
!!!SMS-siglum: PL-Wn
!!!SMS-shelfmark: Mus.247
!!!SMS-shelfwork: 001 G
!!!SMS-variant:
!!!SMS-altvar:
!!!NIFC-rismid:
!!!URL-scan: https://polona.pl/item/dwie-piesni-dzielo-7-wydanie-drugie-i-przerobione,NjYxODg4MDA/0/#info:metadata
!!!ONB-nifc:
!!!AIN: 2 forte 1 vox
!!!key: b
**kern	**kern	**dynam	**kern	**text	**dynam
*part3	*part2	*part2	*part1	*part1	*part1
*staff3	*staff2	*	*staff1	*staff1	*
*I"Fortepian	*I"Fortepian	*	*I"Śpiew	*	*
*I'pf	*I'pf	*	*I'V	*	*
*ICklav	*ICklav	*	*ICvox	*	*
*Iforte	*Iforte	*	*Ivox	*	*
*clefF4	*clefG2	*	*clefG2	*	*
*b:	*b:	*	*b:	*	*
*k[f#c#]	*k[f#c#]	*	*k[f#c#]	*	*
*M6/8	*M6/8	*	*M6/8	*	*
=1	=1	=1	=1	=1	=1
*^	*	*	*	*	*
!	!	!	!	!LO:TX:a:B:t=Allegro con brio	!	!
(4.GG/	[2.BBB\	(16bb\LL	ff >	2.r	.	.
.	.	16aa\	.	.	.	.
.	.	16gg\	.	.	.	.
.	.	16ff#\	.	.	.	.
.	.	16ee\	.	.	.	.
.	.	16ff#\JJ	.	.	.	.
4.FF#/	.	16ee\LL	.	.	.	.
.	.	16dd\	.	.	.	.
.	.	16cc#\	.	.	.	.
.	.	16b\	.	.	.	.
.	.	16cc#\	.	.	.	.
.	.	16b\JJ	.	.	.	.
=2	=2	=2	=2	=2	=2	=2
4.GG/	2.BBB\]	16a#X/LL	.	2.r	.	.
.	.	16g/	.	.	.	.
.	.	16f#/	.	.	.	.
.	.	16e/	.	.	.	.
.	.	16f#/	.	.	.	.
.	.	16e/JJ	.	.	.	.
4.FF#/)	.	16d/LL	.	.	.	.
.	.	16c#/	.	.	.	.
.	.	16B/	.	.	.	.
.	.	16c#/J	.	.	.	.
.	.	8B/J)	]]	.	.	.
=3	=3	=3	=3	=3	=3	=3
(4.GG/	[2.BBB\	(16bb\LL	mf >	2.r	.	.
.	.	16aan\	.	.	.	.
.	.	16gg\	.	.	.	.
.	.	16ff#\	.	.	.	.
.	.	16ee\	.	.	.	.
.	.	16ff#\JJ	.	.	.	.
4.FF#/	.	16ee\LL	.	.	.	.
.	.	16dd\	.	.	.	.
.	.	16cc#\	.	.	.	.
.	.	16b\	.	.	.	.
.	.	16cc#\	.	.	.	.
!	!	!LO:TX:b:B:t=tutto come un echo	!	!	!	!
.	.	16b\JJ	.	.	.	.
=4	=4	=4	=4	=4	=4	=4
4.GG/	2.BBB\]	16a#X/LL	.	2.r	.	.
.	.	16g/	.	.	.	.
.	.	16f#/	.	.	.	.
.	.	16e/	.	.	.	.
.	.	16f#/	.	.	.	.
.	.	16e/JJ	.	.	.	.
4.FF#/)	.	16d/LL	.	.	.	.
.	.	16c#/	.	.	.	.
.	.	16B/	.	.	.	.
.	.	16c#/J	.	.	.	.
.	.	8B/J)	]]	.	.	.
*v	*v	*	*	*	*	*
=5	=5	=5	=5	=5	=5
*ped	*	*	*	*	*
(4.BBB/	8r	pp	2.ryy	.	.
.	(8bb\L	.	.	.	.
.	8b\J)	.	.	.	.
4.BB/)	8r	.	.	.	.
.	(8b/L	.	.	.	.
.	8B/J)	.	.	.	.
*Xped	*	*	*	*	*
=6	=6	=6	=6	=6	=6
(4.BBB/	8r	.	4r	.	.
.	(8F#/L 8B	.	.	.	.
.	8D</J)	.	8r	.	.
4.BB/)	8r	.	8r	.	.
!	!	!	!LO:TX:a:B:t=con anima	!	!
.	(8A#X/L 8c#	.	8f#/	Czar-	.
.	8F#/J)	.	8f#/	-no-	.
!!LO:LB:g=original	!	!	!	!	!
=7	=7	=7	=7	=7	=7
(4.BBB/	8r	.	4b\	-bryw-	.
.	(8B/L 8d	.	.	.	.
.	8F#/J)	.	8f#/	-ko	.
4.BB/)	8r	.	4cc#\	raj-	.
.	(8c#/L 8e	.	.	.	.
.	8F#/J)	.	8f#/	-skie	.
=8	=8	=8	=8	=8	=8
(4.BBB/	8r	.	4dd\	pta-	.
.	(8d/L 8f#	.	.	.	.
.	8F#/J)	.	8cc#\	-szę	.
4.BB/)	8r	.	8b\L	Daj	.
.	(8B/L 8e	.	8a\J	.	.
.	8G/J)	.	8g\	no	.
=9	=9	=9	=9	=9	=9
(4.BBB/	8r	.	4f#/	rącz-	.
.	(8B/L 8d	.	.	.	.
.	8F#/J)	.	8f#/	-kę,	.
!	!	!	!LO:TX:a:B:t=poco rit	!	!
4GG/	8r	.	8b/L	w dło-	.
.	(8B/L 8e 8b	.	8a/J	.	.
8EE/	8g/J)	.	8g/	-ni	.
=10	=10	=10	=10	=10	=10
!	!	!	!LO:TX:B:t=a tempo	!	!
4.BBB/	8r	.	4f#/	dłoń	.
.	(8d/L 8f#	.	.	.	.
.	8B/J)	.	8r	.	.
4.BB/)	8r	.	8r	.	.
!	!	!	!LO:TX:a:B:t=scherzando	!	!
.	(8f#/L 8b	.	8b\	Spól-	.
.	8d/J)	.	8b\	-ne	.
=11	=11	=11	=11	=11	=11
(4.GGG/	8r	.	4cc#\	gniaz-	.
.	(8c#/L 8e	.	.	.	.
.	8B/J)	.	8b\	-dko	.
4.GG/)	8r	.	8r	.	.
.	(8c#/L 8e	.	8b\	gdzieś	.
.	8B/J)	.	8b\	tam	.
=12	=12	=12	=12	=12	=12
(4.EEE/	8r	.	4dd\	na-	.
.	(8c#/L 8e#X	<	.	.	.
.	8B/J)	.	8cc#\	-sze	.
4.GG/)	8r	.	8r	.	.
.	(8c#/L 8e#	.	8cc#\	że-	.
.	8B/J)	[[	8dd\	-byż	.
=13	=13	=13	=13	=13	=13
*^	*	*	*	*	*
*ped	*	*	*	*	*	*
!	!	!	!	!	!	!LO:DY:a
!	!	!	!	!	!	!LO:HP:t=crescendo
!LO:N:vis=2	!	!	!	!	!	!
8FF#/L	[2.FF#/	8r	.	[2.ff#\	wspól-	<
!LO:TX:a:t=m.s.	!	!	!	!	!	!
!	!	!	!LO:HP:t=crescendo	!	!	!
8g>\	.	8ee'/L	<	.	.	.
8f#>\J	.	8dd'/J	.	.	.	.
4e>\	.	4cc#'/	.	.	.	.
8f#>\	.	8dd'/	.	.	.	.
*v	*v	*	*	*	*	*
!!LO:LB:g=original	!	!	!	!	!
=14	=14	=14	=14	=14	=14
*	*^	*	*	*	*
2.FF#/]	(8ee/L	(8g\L	.	2.ff#\_	.	.
.	8dd/)	8f#\)	.	.	.	.
.	8cc#'/J	8e\J	.	.	.	.
.	4b'/	4d\	.	.	.	.
*Xped	*	*	*	*	*	*
.	8cc#'/	8e\	.	.	.	.
*	*v	*v	*	*	*	*
=15	=15	=15	=15	=15	=15
*^	*	*	*	*	*
!LO:N:vis=2.	!	!	!	!	!	!
8F#\L	[2.F#\	(>8dd/L	.	4.ff#\]	.	.
8e>/	.	8cc#/)	.	.	.	.
8d>/J	.	8b/J	.	.	.	.
8c#>\L	.	8a#X'/L	.	4.ee\	-nie	.
8d>\	.	8b'/	.	.	.	.
8e>\J	.	8cc#'/J	.	.	.	.
=16	=16	=16	=16	=16	=16	=16
(8f#>\L	2.F#\]	(8dd/L	.	4.dd\	le-	.
8e>\)	.	8cc#/)	.	.	.	.
8d>\J	.	8b'/J	.	.	.	.
8c#>\L	.	8a#X'/L	.	4.cc#\	-cieć	.
8d>\	.	8b'/	.	.	.	.
8e>\J	.	8cc#'/J	.	.	.	.
=17	=17	=17	=17	=17	=17	=17
(4.GG/	[2.BBB\	(16bb\LL	ff >	[2.b\	doń!	>
.	.	16aa\	.	.	.	.
.	.	16gg\	.	.	.	.
.	.	16ff#\	.	.	.	.
.	.	16ee\	.	.	.	.
.	.	16ff#\JJ	.	.	.	.
4.FF#/	.	16ee\LL	.	.	.	.
.	.	16dd\	.	.	.	.
.	.	16cc#\	.	.	.	.
.	.	16b\	.	.	.	.
.	.	16cc#\	.	.	.	.
.	.	16b\JJ	.	.	.	.
=18	=18	=18	=18	=18	=18	=18
4.GG/	2.BBB\]	16a#X/LL	.	2.b\_	.	.
.	.	16g/	.	.	.	.
.	.	16f#/	.	.	.	.
.	.	16e/	.	.	.	.
.	.	16f#/	.	.	.	.
.	.	16e/JJ	.	.	.	.
4.FF#/)	.	16d/LL	.	.	.	.
.	.	16c#/	.	.	.	.
.	.	16B/	.	.	.	.
.	.	16c#/J	.	.	.	.
.	.	8B/J)	]]	.	.	]
*v	*v	*	*	*	*	*
=19	=19	=19	=19	=19	=19
*ped	*	*	*	*	*
(4.BBB/	8r	pp	4b\]	.	.
.	(8bb\L	.	.	.	.
.	8b\J)	.	8r	.	.
4.BB/)	8r	.	4r	.	.
.	(8b/L	.	.	.	.
.	8B/J)	.	8r	.	.
*Xped	*	*	*	*	*
=20	=20	=20	=20	=20	=20
(4.BBB/	8r	.	4r	.	.
.	(8F#/L 8B	.	.	.	.
.	8D</J)	.	8r	.	.
4.BB/)	8r	.	8r	.	.
.	(8A#X/L 8c#	.	8f#/	Raj-	.
.	8F#/J)	.	8f#/	-skie	.
!!LO:LB:g=original	!	!	!	!	!
=21	=21	=21	=21	=21	=21
(4.BBB/	8r	.	4b\	pta-	.
.	(8B/L 8d	.	.	.	.
.	8F#/J)	.	8f#/	-szę	.
4.BB/	8r	.	4cc#\	czar-	.
.	(8c#/L 8e	.	.	.	.
.	8F#/J)	.	8f#/	-no-	.
=22	=22	=22	=22	=22	=22
4.BBB/	8r	.	4dd\	-bryw-	.
.	(8d/L 8f#	.	.	.	.
.	8F#/J)	.	8cc#\	-ko!	.
4.BB/)	8r	.	8b\L	Myś-	.
.	(8B/L 8e	.	8a\J	.	.
.	8G/J)	.	8g/	-my	.
=23	=23	=23	=23	=23	=23
(4.BBB/	8r	.	4f#/	swo-	.
.	(8B/L 8d	.	.	.	.
.	8F#/J)	.	8f#/	-i,	.
!	!	!	!LO:TX:a:B:t=poco rit.	!	!
4GG/	8r	.	8b\L	mo-	.
.	(8B/L 8e 8b	.	8a\J	.	.
8EE/	8g/J)	.	8g/	-ja,	.
=24	=24	=24	=24	=24	=24
!	!	!	!LO:TX:a:B:t=a tempo	!	!
4.BBB/	8r	.	4f#/	twój,	.
.	(8d/L 8f#	.	.	.	.
.	8B/J)	.	8r	.	.
4.BB/)	8r	.	8r	.	.
!	!	!	!LO:TX:a:B:t=scherzando	!	!
.	(8f#/L 8b	.	8b\	O-	.
.	8d/J)	.	8b\	-ko	.
=25	=25	=25	=25	=25	=25
(4.GGG/	8r	.	4cc#\	w o-	.
.	(8c#/L 8e	.	.	.	.
.	8B/J)	.	8b\	-ko,	.
4.GG/	8r	.	8r	.	.
.	(8c#/L 8e	.	8b\	na-	.
.	8B/J)	.	8b\	-prze-	.
=26	=26	=26	=26	=26	=26
4.GGG/	8r	.	4dd\	-ciw-	.
.	(8c#/L 8e#X	.	.	.	.
.	8B/J)	.	8cc#\	-ko,	.
4.GG/)	8r	.	8r	.	.
.	(8c#/L 8e#	.	8cc#\	Swe	.
.	8B/J)	.	8dd\	pu-	.
!!LO:LB:g=original	!	!	!	!	!
=27	=27	=27	=27	=27	=27
*^	*	*	*	*	*
*ped	*	*	*	*	*	*
!	!	!	!	!	!	!LO:HP:t=crescendo
!LO:N:vis=2.	!	!	!	!	!	!LO:DY:a
8FF#/L	[2.FF#/	8r	.	[2.ff#\	-sto-	<
!LO:TX:a:t=m.s.	!	!	!	!	!	!
8g>\	.	8ee/L	.	.	.	.
8f#>\J	.	8dd/J	.	.	.	.
!	!	!	!LO:HP:t=crescendo	!	!	!
4e>\	.	4cc#/	<	.	.	.
8f#>\	.	8dd/	.	.	.	.
=28	=28	=28	=28	=28	=28	=28
(8g>\L	2.FF#/]	(8ee/L	.	2.ff#\_	.	.
8f#>\)	.	8dd/)	.	.	.	.
8e>\J	.	8cc#'/J	.	.	.	.
4d>\	.	4b/	.	.	.	.
8e>\	.	8cc#/	.	.	.	.
*Xped	*	*	*	*	*	*
=29	=29	=29	=29	=29	=29	=29
!LO:N:vis=2	!	!	!	!	!	!
8F#/L	[2.F#\	(8dd/L	.	4.ff#\]	.	.
8e/	.	8cc#/)	.	.	.	.
8d/J	.	8b'/J	.	.	.	.
8c#/L	.	8a#X'/L	.	4.ee\	-ty	.
8d/	.	8b'/	.	.	.	.
8e/J	.	8cc#'/J	.	.	.	.
=30	=30	=30	=30	=30	=30	=30
(8f#/L	2.F#\]	(8dd/L	.	4.dd\	ku	.
8e/)	.	8cc#/)	.	.	.	.
8d'/J	.	8b'/J	.	.	.	.
8c#'/L	.	8a#X'/L	.	4.cc#\	mnie	.
8d'/	.	8b'/	.	.	.	.
8e'/J	.	8cc#'/J	.	.	.	.
=31	=31	=31	=31	=31	=31	=31
!	!LO:TX:t=P:problem= dźwięk 2.BBB jako jedyny ma \right	!	!	!	!	!
!	!	!	!	!	!	!LO:DY:a
(4.GG/	[2.BBB\	(16bb\LL	ff	[2.b\	strój!	>
.	.	16aa\	.	.	.	.
.	.	16gg\	.	.	.	.
.	.	16ff#\	.	.	.	.
.	.	16ee\	.	.	.	.
.	.	16ff#\JJ	.	.	.	.
4.FF#/	.	16ee\LL	>	.	.	.
.	.	16dd\	.	.	.	.
.	.	16cc#\	.	.	.	.
.	.	16b\	.	.	.	.
.	.	16cc#\	.	.	.	.
.	.	16b\JJ	.	.	.	.
=32	=32	=32	=32	=32	=32	=32
4.GG/	2.BBB\]	16a#X/LL	.	2.b\]	.	.
.	.	16g/	.	.	.	.
.	.	16f#/	.	.	.	.
.	.	16e/	.	.	.	.
.	.	16f#/	.	.	.	.
.	.	16e/JJ	.	.	.	.
4.FF#/)	.	16d/LL	.	.	.	.
.	.	16c#/	.	.	.	.
.	.	16B/	.	.	.	.
.	.	16c#/J	.	.	.	.
.	.	8B'/J)	]]	.	.	]]
!!LO:LB:g=original	!	!	!	!	!	!
=33	=33	=33	=33	=33	=33	=33
(4.GG/	[2.BBB\	(16bb\LL	mf	4b\	.	.
.	.	16aa\	.	.	.	.
!	!	!LO:TX:b:B:t=tutto come un echo	!	!	!	!
.	.	16gg\	>	.	.	.
.	.	16ff#\	.	.	.	.
.	.	16ee\	.	8r	.	.
.	.	16ff#\JJ	.	.	.	.
4.FF#/	.	16ee\LL	.	4r	.	.
.	.	16dd\	.	.	.	.
.	.	16cc#\	.	.	.	.
.	.	16b\	.	.	.	.
.	.	16cc#\	.	8r	.	.
.	.	16b\JJ	.	.	.	.
=34	=34	=34	=34	=34	=34	=34
4.GG/	2.BBB\]	16a#X/LL	.	2.r	.	.
.	.	16g/	.	.	.	.
.	.	16f#/	.	.	.	.
.	.	16e/	.	.	.	.
.	.	16f#/	.	.	.	.
.	.	16e/JJ	.	.	.	.
4.FF#/)	.	16d/LL	.	.	.	.
.	.	16c#/	.	.	.	.
.	.	16B/	.	.	.	.
.	.	16c#/J	.	.	.	.
.	.	8B'/J)	]]	.	.	.
*v	*v	*	*	*	*	*
=35	=35	=35	=35	=35	=35
*ped	*	*	*	*	*
(4.BBB/	8r	pp	2.r	.	.
.	(8bb\L	.	.	.	.
.	8b\J)	.	.	.	.
4.BB/	8r	.	.	.	.
.	(8b/L	.	.	.	.
.	8B/J)	.	.	.	.
=36	=36	=36	=36	=36	=36
4.BBB/ 4.BB	8r	.	2.r	.	.
!	!LO:TX:a:B:t=poco ritard	!	!	!	!
.	(8d/L	<	.	.	.
*Xped	*	*	*	*	*
.	8D</J)	.	.	.	.
4.BBB-X/) 4.BB-X	8r	[	.	.	.
.	(8d/L 8f#	>	.	.	.
.	8F#;/J)	]	.	.	.
!!LO:LB:g=original	!	!	!	!	!
=37	=37	=37	=37	=37	=37
!	!	!	!LO:TX:a:B:t=Meno mosso e con gran espressione	!	!LO:DY:a
4.AAA/ 4.AA	8r	pp	4.f#/	Niech	p
.	8F#/L 8d 8f#	.	.	.	.
.	8F#/J 8d 8f#	.	.	.	.
4.GGG/ 4.GG	8r	.	4.b\	wpa-	.
.	8B/L 8d 8g	.	.	.	.
.	8B/J 8d 8g	.	.	.	.
=38	=38	=38	=38	=38	=38
4.FFF#/ 4.FF#	8r	.	4.a/	-tru-	.
.	8A/L 8d 8a	.	.	.	.
.	8A/J 8d 8a	.	.	.	.
4.BBB/ 4.BB	8r	.	4.dd\	-jąc	.
.	8G#X/L 8d 8e	.	.	.	.
.	8G#/J 8d 8e	.	.	.	.
=39	=39	=39	=39	=39	=39
4.AAA/ 4.AA	8r	.	([4.cc#\	się	.
.	8A/L 8c# 8e	.	.	.	.
.	8A/J 8c# 8e	.	.	.	.
4.AAA/ 4.AA	8r	.	8cc#\L]	.	.
.	8G#X/L 8d 8e	.	8dd\J)	.	.
.	8G#/J 8d 8e	.	8b\	mi-	.
=40	=40	=40	=40	=40	=40
4.AAA/ 4.AA	8r	.	[4.a/	-ło-	.
.	8A/L 8c# 8e	.	.	.	.
.	8A/J 8c# 8e	.	.	.	.
4.AAA/ 4.AA	8r	.	4a/]	.	.
.	8Gn/L 8c# 8e	.	.	.	.
.	8G/J 8c# 8e	.	8g/	-śnie	.
=41	=41	=41	=41	=41	=41
4.DD/ 4.D	8r	.	4.f#/	zbu-	.
.	8F#/L 8A 8d	.	.	.	.
.	8F#/J 8A 8d	.	.	.	.
4.BBB/ 4.BB	8r	.	4.g/	-dzę	.
.	8G/L 8d 8g	.	.	.	.
.	8G/J 8d 8g	.	.	.	.
=42	=42	=42	=42	=42	=42
4.AAA/ 4.AA	8r	.	(4.f#/	w du-	.
.	8A/L 8d 8f#	.	.	.	.
.	8A/J 8d 8f#	.	.	.	.
4.GGG#X/ 4.GG#X	8r	.	4.b\)	-szy	.
.	8B/L 8d 8f# 8b	.	.	.	.
.	8B/J 8d 8f# 8b	.	.	.	.
=43	=43	=43	=43	=43	=43
4.AAA/ 4.AA	8r	.	([4.e/	ste-	.
.	8A/L 8c# 8e	.	.	.	.
.	8A/J 8c# 8e	.	.	.	.
4.BBB-X/ 4.BB-X	8r	.	8e/L]	.	.
.	8G#X/L 8d 8e	.	8f#/J)	.	.
.	8G#/J 8d 8e	.	8d/	-pu	.
!!LO:LB:g=original	!	!	!	!	!
=44	=44	=44	=44	=44	=44
4.AAA/ 4.AA	8r	.	[4.e/	szum;	.
.	8A/L 8c# 8e	.	.	.	.
.	8A/J 8c# 8e	.	.	.	.
4.AAA/ 4.AA	8r	.	8e/]	.	.
.	8A/L 8c# 8e	.	8r	.	.
.	8A/J 8c# 8e	.	8r	.	.
=45	=45	=45	=45	=45	=45
!	!	!	!	!	!LO:DY:a
4.DD/ 4.D	8r	.	4.f#/	Nie-	.
.	8A/L 8d 8f#	.	.	.	.
.	8A/J 8d 8f#	<	.	.	.
4.DD/ 4.D	8r	.	4.b\	-chaj	<
.	8B/L 8d 8g	.	.	.	.
.	8B/J 8d 8g	.	.	.	.
=46	=46	=46	=46	=46	=46
4.DD/ 4.D	8r	.	([4.a\	chwil-	.
.	8A/L 8d 8f#	.	.	.	.
.	8A/J 8d 8f#	.	.	.	.
4.CC#/ 4.C#	8A#X/L 8d 8f#	.	8a\L]	.	.
.	8A#/J 8d 8f#	.	8ff#\J)	.	.
.	8r	[[	8ee\	-kę	[[
=47	=47	=47	=47	=47	=47
!	!	!	!	!	!LO:DY:a
4.BBB/ 4.BB	8B/L 8d 8f#	>	([4.dd\	je-	>
.	8B/J 8d 8f#	.	.	.	.
.	8r	.	.	.	.
4.GGG#X/ 4.GG#X	8B/L 8d 8f#	.	8dd\L]	.	.
.	8B/J 8d 8f#	]	8cc#\J)	.	.
.	8r	.	8b\	-dną	]]
=48	=48	=48	=48	=48	=48
!	!	!	!LO:TX:a:B:t=dolce	!	!
4.CC#/ 4.C#	8G#X/L 8B 8f#	pp	([4.dd\	po	.
.	8G#/J 8B 8f#	.	.	.	.
.	8r	.	.	.	.
4.CC#/ 4.C#	8G#/L 8B 8e#X	.	8dd\L]	.	.
.	8G#/J 8B 8e#	.	8cc#\J)	.	.
.	8r	.	8b\	śnie	.
=49	=49	=49	=49	=49	=49
*^	*^	*	*	*	*
!	!	!	!	!	!	!	!LO:DY:a
8D/L	4.D\	(4.f#/	8f#\L	.	(4.a\	Ja-	p
8F#/	.	.	8A\	.	.	.	.
8F#/J	.	.	8A\J	.	.	.	.
8GG#X/L	4.GG#\	4.b/	8b\L	.	4.dd\	-kom	.
8E#X/	.	.	8B\ 8d	.	.	.	.
8E#/J	.	.	8B\J 8d	.	.	.	.
=50	=50	=50	=50	=50	=50	=50	=50
8AA/L	4.AA\	4.a/	8a\L	.	4.f#/)	śnił	.
8F#/	.	.	8d\	.	.	.	.
8F#/J	.	.	8d\J	.	.	.	.
8AA/L	4.AA\	4.dd/)	8dd\L	.	4.b\	śród	.
8G#X/	.	.	8d\	.	.	.	.
8G#/J	.	.	8d\J	.	.	.	.
!!LO:LB:g=original	!	!	!	!	!	!	!
=51	=51	=51	=51	=51	=51	=51	=51
!	!	!	!	!LO:DY:a	!	!	!LO:DY:a
8AA/L	4.AA\	4.e/	8e\L	<	([4.a\	wa-	<
8A/	.	.	8d\	.	.	.	.
8A/J	.	.	8d\J	.	.	.	.
8GG/L	4.AA\	4.a/	8a\L	.	8a\L]	.	.
8Gn/	.	.	8c#\	[	8b\J)	.	.
!	!	!	!	!LO:DY:a	!	!	!
8G/J	.	.	8c#\J	>	8a/	-szych	[
=52	=52	=52	=52	=52	=52	=52	=52
!	!	!	!	!	!	!	!LO:DY:a
8D/L	4.D\	4.d/	8d\L	.	4d/	dum	>
8F#/	.	.	8A\	.	.	.	.
8F#/J	.	.	8A\J	.	8r	.	]
!	!	!LO:TX:a:B:t=sempre pui p. e ritard.	!	!	!	!	!
8D/L	4.D\	4.b/	8b\L	]	4r	.	.
8G/	.	.	8B\ 8d	.	.	.	.
8G/J	.	.	8B\J 8d	.	8r	.	.
=53	=53	=53	=53	=53	=53	=53	=53
8D/L	4.D\	4.a/	8a\L	.	2.r	.	.
8F#/	.	.	8d\	.	.	.	.
8F#/J	.	.	8d\J	.	.	.	.
8BB/L	4.BB\	4.dd/	8dd\L	.	.	.	.
8F#/ 8G#X	.	.	8d\ 8f#	.	.	.	.
8F#/J 8G#	.	.	8d\J 8f#	.	.	.	.
=54	=54	=54	=54	=54	=54	=54	=54
8FF#/L	[4.FF#\	[4.cc#/	8cc#\L	.	4r	.	.
8F#/ 8A#X	.	.	8c#\ 8f#	.	.	.	.
8F#/J 8A#	.	.	8c#\J 8f#	.	8r	.	.
8F#/ 8A#	8FF#;\]	8c#;/ 8f# 8cc#]	4.ryy	.	8r;	.	.
!	!	!	!	!	!LO:TX:a:B:t=con anima	!	!
!	!	!	!	!	!LO:TX:a:B:t=Tempo 1	!	!
8r	4ryy	8r	.	.	8f#/	Ten	.
8r	.	8r	.	.	8f#/	dziew-	.
*v	*v	*	*	*	*	*	*
*	*v	*v	*	*	*	*
=55	=55	=55	=55	=55	=55
4.BBB/	8r	.	4b\	-czę-	.
.	(8B/L 8d	.	.	.	.
.	8F#/J)	.	8f#/	-cy	.
4.BB/	8r	.	4cc#\	twój	.
.	(8c#/L 8e	.	.	.	.
.	8F#/J)	.	8f#/	u-	.
=56	=56	=56	=56	=56	=56
4.BBB/	8r	.	4dd\	-śmie-	.
.	(8d/L 8f#	.	.	.	.
.	8F#/J)	.	8cc#\	-szek,	.
4.BB/	8r	.	8b\L	Puść	.
.	(8B/L 8e	.	8a\J	.	.
.	8G/J)	.	8g/	po	.
=57	=57	=57	=57	=57	=57
4.BBB/	8r	.	4f#/	lep-	.
.	(8B/L 8d	.	.	.	.
.	8F#/J)	.	8f#/	-kim	.
!	!	!	!LO:TX:a:B:t=poco riten	!	!LO:DY:a
4GG/	8r	.	8b\L	wzro-	>
.	(8B/L 8e 8b	.	8a\J	.	.
8EE/	8g/J)	.	8g/	-ku	]]
!!LO:LB:g=original	!	!	!	!	!
=58	=58	=58	=58	=58	=58
!	!	!	!LO:TX:a:B:t=a tempo	!	!
4.BBB/	8r	.	4f#/	wzdłuż	.
.	(8d/L 8f#	.	.	.	.
.	8B/J)	.	8r	.	.
4.BB/	8r	.	8r	.	.
.	(8f#/L 8b	.	8b\	Och!	.
!	!	!	!LO:TX:a:B:t=scherzando	!	!
.	8d/J)	.	8b\	o	.
=59	=59	=59	=59	=59	=59
4.GGG/	8r	.	4cc#\	smu-	.
.	(8c#/L 8e	.	.	.	.
.	8B/J)	.	8b\	-knę	.
4.GG/	8r	.	8r	.	.
.	(8c#/L 8e	.	8b\	ma-	.
.	8B/J)	.	8b\	-ły	.
=60	=60	=60	=60	=60	=60
4.GGG/	8r	.	4dd\	me-	.
.	(8c#/L 8e#X	.	.	.	.
.	8B/J)	.	8cc#\	-szek,	.
4.GG/	8r	.	8r	.	.
!	!	!	!	!	!LO:DY:a
.	(8c#/L 8e#	.	8cc#\	Co	<
.	8B/J)	.	8dd\	o	[[
=61	=61	=61	=61	=61	=61
*^	*	*	*	*	*
!	!	!	!	!	!	!LO:DY:a
!LO:N:vis=2.	!	!	!	!	!	!LO:HP:t=crescendo
8FF#/L	[2.FF#/	8r	.	[2.ff#\	śnia-	<
!LO:TX:a:t=m.s.	!	!	!	!	!	!
8g>\	.	8ee/L	.	.	.	.
!	!	!	!LO:HP:t=crescendo	!	!	!
8f#>\J	.	8dd/J	<	.	.	.
4e>\	.	4cc#/	.	.	.	.
8f#>\	.	8dd/	.	.	.	.
=62	=62	=62	=62	=62	=62	=62
(8g>\L	2.FF#/]	(8ee/L	.	2.ff#\_	.	.
8f#>\)	.	8dd/)	.	.	.	.
8e>\J	.	8cc#'/J	.	.	.	.
4d>\	.	4b/	.	.	.	.
8e>\	.	8cc#/	.	.	.	.
=63	=63	=63	=63	=63	=63	=63
!LO:N:vis=2	!	!	!	!	!	!
(8F#/L	[2.F#\	(8dd/L	.	4.ff#\]	.	.
8e/)	.	8cc#/)	.	.	.	.
8d/J	.	8b'/J	.	.	.	.
(8c#'/L	.	8a#X'/L	.	4.ee\	-dza	.
8d'/	.	8b'/	.	.	.	.
8e'/J)	.	8cc#'/J	.	.	.	.
=64	=64	=64	=64	=64	=64	=64
(8f#/L	2.F#\]	(8dd/L	.	4.dd\	kra-	.
8e/)	.	8cc#/)	.	.	.	.
8d'/J	.	8b'/J	.	.	.	.
8c#'/L	.	8a#X'/L	.	4.cc#\	-sę	.
8d'/	.	8b'/	.	.	.	.
8e'/J	.	8cc#'/J	.	.	.	.
!!LO:LB:g=original	!	!	!	!	!	!
=65	=65	=65	=65	=65	=65	=65
!	!	!	!	!	!	!LO:DY:a
4.GG/	[2.BBB\	(16bb\LL	ff >	[2.b\	róż!	>]
.	.	16aa\	.	.	.	.
.	.	16gg\	.	.	.	.
.	.	16ff#\	.	.	.	.
.	.	16ee\	.	.	.	.
.	.	16ff#\JJ	.	.	.	.
(4.FF#/	.	16ee\LL	.	.	.	.
.	.	16dd\	.	.	.	.
.	.	16cc#\	.	.	.	.
.	.	16b\	.	.	.	.
.	.	16cc#\	.	.	.	.
.	.	16b\JJ)	]]	.	.	.
!!LO:LB:g=original	!	!	!	!	!	!
=66	=66	=66	=66	=66	=66	=66
4.GG/)	2.BBB\_	(16a#X/LL	>	2.b\_	.	.
.	.	16g/	.	.	.	.
.	.	16f#/	.	.	.	.
.	.	16e/	.	.	.	.
.	.	16f#/	.	.	.	.
.	.	16e/JJ	.	.	.	.
4.FF#/	.	16d/LL	.	.	.	.
.	.	16c#/	.	.	.	.
.	.	16B/	.	.	.	.
.	.	16c#/J	.	.	.	.
.	.	8B'/J)	]	.	.	.
=67	=67	=67	=67	=67	=67	=67
(4.GG/	2.BBB\_	(16bb\LL	mp	4b\]	.	.
.	.	16aan\	.	.	.	.
!	!	!LO:TX:b:B:t=tutto come un echo	!	!	!	!
.	.	16gg\	.	.	.	.
.	.	16ff#\	.	.	.	.
.	.	16ee\	.	8r	.	.
.	.	16ff#\JJ	.	.	.	.
4.FF#/	.	16ee\LL	.	8r	.	.
.	.	16dd\	.	.	.	.
.	.	16cc#\	.	4r	.	.
.	.	16b\	.	.	.	.
.	.	16cc#\	.	.	.	.
.	.	16b\JJ	.	.	.	.
=68	=68	=68	=68	=68	=68	=68
4.GG/	2.BBB\_	16a#X/LL	.	2.r	.	.
.	.	16g/	.	.	.	.
.	.	16f#/	.	.	.	.
.	.	16e/	.	.	.	.
.	.	16f#/	.	.	.	.
.	.	16e/JJ	.	.	.	.
4.FF#/	.	16d/LL	.	.	.	.
.	.	16c#/	.	.	.	.
.	.	16B/	.	.	.	.
.	.	16c#/J	.	.	.	.
.	.	8B'/J)	.	.	.	.
*v	*v	*	*	*	*	*
=69	=69	=69	=69	=69	=69
*ped	*	*	*	*	*
8BBB/]) 8FF#	4r	pp	2.r	.	.
8r	.	.	.	.	.
.	((8qff#/	.	.	.	.
*Xped	*	*	*	*	*
8r	8cc#\)) 8ff#	.	.	.	.
*clefG2	*	*	*	*	*
*ped	*	*	*	*	*
8b\ 8ff#	4r	.	.	.	.
8r	.	.	.	.	.
.	((8qff#/	.	.	.	.
*Xped	*	*	*	*	*
8r	8dd\)) 8ff#	.	.	.	.
=70	=70	=70	=70	=70	=70
!LO:TX:b:i:t=simile	!	!	!	!	!
8B/ 8f#	4r	.	2.r	.	.
8r	.	.	.	.	.
.	((8qf#/	.	.	.	.
8r	8c#/)) 8f#	.	.	.	.
*clefF4	*	*	*	*	*
8BB\ 8F#	4r	.	.	.	.
8r	.	.	.	.	.
*	*clefF4	*	*	*	*
.	((8qF#/	.	.	.	.
8r	8D\)) 8F#	.	.	.	.
=71	=71	=71	=71	=71	=71
*ped	*	*	*	*	*
2.BBB/ 2.GG	4r	.	2.ryy	.	.
.	(([8qA#X/	.	.	.	.
.	[8C#/)) [8E 8A#_	.	.	.	.
.	4.C#/] 4.E] 4.A#]	.	.	.	.
*Xped	*	*	*	*	*
=72	=72	=72	=72	=72	=72
*ped	*	*	*	*	*
2.BBB/ 2.FF#	4r	.	2.ryy	.	.
.	(([8qB/	.	.	.	.
.	[8BB/)) [8D 8B_	.	.	.	.
.	4.BB/] 4.D] 4.B]	.	.	.	.
*Xped	*	*	*	*	*
==	==	==	==	==	==
*-	*-	*-	*-	*-	*-
!!!system-decoration: s1{(s2,s3)}
!!!RDF**kern: > = above
!!!RDF**kern: < = below
!!!ENC: Andrzej Gręziak
!!!END: 2022-02-17
!!!ENC: Natalia Wrzos
!!!END: 2022-02-19
